X:1
T:New World Symphony
T:New World Symphony 
T:First Movement 
T:Antonín Leopold Dvořák arr. Andres Munevar
C:Dvořák arr. AM
%%score 1 2
L:1/8
M:2/4
K:D
V:1 treble nm="Violin" snm="Vln."
V:2 alto nm="Viola" snm="Vla."
V:1
 B,3 D | F B3 | d2 BG | F B,2 D | D>F FC | D>F FC | D>F FC | D z z2 | B,3 D | F B3 | d2 BG | %11
 A D2 F | F>A AE | F>A AE | F>A AE |"^A" F4- | F z z2 | E4- | E z z2 | F4- | F z z2 | G4- | G2 z2 | %23
 GE DC | GE DC | BG FE | BG FE | GE DC | BG FE | B4- | B4- | B4- | B4 |"^B" B>F FC | D>F FC | %35
 D>F FC | B,>D DA | G>B BF | E>G GD | C>E EB, | A,>C CG | F>A AE | D>F FC | B,>D DB, | DF F/E/D | %45
 B,>D DB, | D=F F/E/D | D>F FD | D=F F/E/D | D=F F/E/D |"^C" D2 =F/E/D | E/G/G/E/ G2 | =FD D/E/F | %53
 EE/=C/ D2 | D=F F/E/D | E/G/G/E/ G2 | =FD D/E/F | E2 D2 | FA A/G/F | B/d/d/B/ d2 | AF F/G/A | %61
 F/E/ E3 | AF F/G/A | F/E/ E3 | F/E/ E3 | F2 G2 | F2 G2 | F2 G2 | F2 E2 |"^D" D3 D | B, A,3 | %71
 D>F AA | A4 | A>B AG | F A3 | (3GAG (3ECB, | A,2 A,D | D3 D | B, A,3 | D>F AA | A4 | A>B AG | %82
 F A3 | (3GAG (3ECB, | A,4 | (3GAG (3ECB, | A,4 |"^E" E/F/E E/F/E | E/F/E E/F/E | A/B/A A/B/A | %90
 A/B/A A/B/A | d4- | d4- | d4 | B A2 A | D>F AA | AA AA | d2 D z | D z z2 |] %99
V:2
 B,4- | B,4- | B,4- | B, B,2 B, | B,>D D^A, | B,>D D^A, | B,>D D^A, | B,4- | B,4- | B,4- | %10
 B,2 G,2 | F, F,2 D | D>F FC | D>F FC | D>F FC | F,3 ^A, | C F3 | G3 E | C B,3 | ^A,3 C | F ^A3 | %21
 B3 G | F E3 | E4 | E,4 | E4 | E,4 | E2 E,2 | E2 E,2 | B,3 D | F B3 | d2 BG | F B,3 | B,2 F z | %34
 B,2 F, z | B,2 F, z | B,2 B, z | E,2 B, z | E,2 E, z | A,2 E, z | A,2 A, z | D,2 A, z | D2 D, z | %43
 ^G,4 | D,F, F,/E,/D, | G,4 | D,=F, F,/E,/D, | ^G,4 | D,=F, F,/E,/D, | D,=F, F,/E,/D, | A,2 A,2 | %51
 A,2 A,2 | A,2 A,2 | A,2 A,2 | A,2 A,2 | A,2 A,2 | A,2 A,2 | A,2 A,2 | DF F/E/D | G/B/B/G/ B2 | %60
 FD D/E/F | D/C/ C3 | FD D/E/F | D/C/ C3 | D/C/ C3 | D2 B,2 | D2 B,2 | D2 B,2 | A,2 G,2 | F,4- | %70
 F,4 | B,4 | C4 | C4 | D4 | E2 A,2 | F,4 | F,4- | F,4 | B,4 | C4 | C4 | D4 | E2 A,2 | F,4 | %85
 D2 A,2 | F,4 | DB, G,E, | DB, G,E, | GE CA, | GE CA, | D3 D | B, A,3 | D,>F, A,A, | A,3 A, | %95
 F,>D DA, | DA, DA, | D2 D, z | D, z z2 |] %99

